img/go-to-code.svg

<svg width="150" height="150" viewBox="0 0 150 150" fill="none" xmlns="http://www.w3.org/2000/svg">
<circle cx="75" cy="75" r="73" stroke="#0082F4" stroke-width="4"/>
<path d="M107.762 61.7459L102.86 53.254C102.568 52.7489 101.949 52.5356 101.408 52.7539L94.1908 55.6673C93.5913 55.9092 93.3015 56.5912 93.5435 57.1907C93.7855 57.7904 94.4674 58.0802 95.067 57.8379L101.341 55.3053L105.226 62.0356L99.9029 66.1972C99.5207 66.496 99.3626 66.9993 99.5049 67.4629C100.979 72.2629 101.036 77.5534 99.5049 82.5368C99.3626 83.0004 99.5207 83.5037 99.9029 83.8025L105.226 87.9641L101.341 94.6944L95.067 92.1618C94.6171 91.9799 94.1021 92.0948 93.7717 92.45C90.2482 96.2386 85.7373 98.8454 80.7268 99.9886C80.2535 100.097 79.896 100.486 79.8282 100.967L78.8857 107.659H71.1143L70.1718 100.967C70.104 100.486 69.7465 100.097 69.2732 99.9889C64.2626 98.8457 59.7518 96.2388 56.2283 92.4503C55.8979 92.0951 55.3829 91.9802 54.933 92.1621L48.6592 94.6946L44.7734 87.9644L50.097 83.8028C50.4791 83.504 50.6373 83.0007 50.4949 82.5371C49.0204 77.737 48.9641 72.4466 50.4949 67.4632C50.6373 66.9995 50.4791 66.4962 50.097 66.1975L44.7734 62.0359L48.6592 55.3056L54.933 57.8382C55.3829 58.0201 55.8981 57.9052 56.2283 57.55C59.7518 53.7614 64.2627 51.1546 69.2732 50.0114C69.7465 49.9034 70.104 49.5144 70.1718 49.0334L71.1143 42.3412H78.8857L79.8282 49.0334C79.896 49.5142 80.2535 49.9032 80.7268 50.0114C83.4704 50.6373 86.0783 51.7088 88.4778 53.1956C89.0277 53.5358 89.7489 53.3663 90.0892 52.8171C90.4296 52.2676 90.2602 51.546 89.7108 51.2055C87.3219 49.7253 84.7434 48.6223 82.0357 47.9209L81.062 41.0075C80.9807 40.43 80.4863 40.0003 79.903 40.0003H70.0973C69.514 40.0003 69.0196 40.43 68.9383 41.0075L67.9646 47.9209C63.0694 49.1877 58.6412 51.7467 55.074 55.3707L48.5925 52.7543C48.0516 52.5358 47.4324 52.7492 47.1407 53.2544L42.2378 61.7464C41.946 62.2516 42.071 62.8945 42.5305 63.2538L48.031 67.5538C46.6928 72.4094 46.6925 77.5903 48.031 82.4471L42.5305 86.7471C42.071 87.1064 41.946 87.7493 42.2378 88.2545L47.1407 96.7465C47.4324 97.2517 48.0514 97.465 48.5925 97.2465L55.074 94.6301C58.6412 98.2542 63.0694 100.813 67.9646 102.08L68.9383 108.993C69.0195 109.57 69.5138 110 70.0972 110H79.9028C80.4862 110 80.9805 109.57 81.0619 108.993L82.0355 102.079C86.9307 100.813 91.359 98.2536 94.9261 94.6295L101.408 97.246C101.949 97.4641 102.568 97.2512 102.86 96.7459L107.762 88.2539C108.054 87.7487 107.929 87.1058 107.47 86.7465L101.969 82.4465C103.307 77.5909 103.308 72.41 101.969 67.5532L107.47 63.2532C107.929 62.894 108.054 62.2513 107.762 61.7459ZM73.0827 69.4321L78.935 79.3809C79.2627 79.9382 79.0768 80.6556 78.5196 80.9833C77.9626 81.3109 77.2452 81.1251 76.9173 80.5679L71.065 70.619C70.7373 70.0618 70.9232 69.3444 71.4804 69.0167C72.0378 68.689 72.7551 68.8751 73.0827 69.4321ZM68.5122 79.487C68.0553 79.9438 67.3143 79.9439 66.857 79.487L63.1976 75.8276C62.7408 75.3707 62.7405 74.6295 63.1976 74.1723L66.857 70.5128C67.3143 70.0558 68.0552 70.0559 68.5122 70.5128C68.9694 70.97 68.9694 71.7111 68.5122 72.1681L65.6804 74.9998L68.5122 77.8314C68.9694 78.2888 68.9694 79.0298 68.5122 79.487ZM82.1691 70.17C82.4686 70.17 82.7683 70.2843 82.9968 70.5128L86.6562 74.1724C87.113 74.6293 87.1133 75.3705 86.6562 75.8277L82.9968 79.4872C82.5397 79.9441 81.7987 79.9441 81.3416 79.4872C80.8844 79.03 80.8844 78.2889 81.3416 77.8318L84.1734 75.0002L81.3416 72.1684C80.6017 71.4283 81.1358 70.17 82.1691 70.17ZM68.1503 56.3184C70.3844 55.4992 72.7007 55.0914 75.0113 55.0916C89.4702 55.0923 99.1605 70.1896 93.0531 83.3671C88.4396 93.3213 76.5877 97.6666 66.6329 93.0532C53.9775 87.1878 51.1081 70.3238 61.2298 60.6298C61.6966 60.1825 62.4377 60.1986 62.8847 60.6655C63.3318 61.1322 63.3158 61.8732 62.849 62.3203C53.9241 70.8685 56.4448 85.7513 67.6171 90.9293C76.401 95 86.8583 91.1662 90.929 82.3827C94.9998 73.5995 91.1659 63.1417 82.3824 59.0709C78.1274 57.0988 73.3591 56.9019 68.9557 58.5162C68.3489 58.7384 67.6764 58.427 67.4538 57.8202C67.2316 57.2132 67.5432 56.5408 68.1503 56.3184Z" fill="#0082F4"/>
</svg>

<svg xmlns="http://www.w3.org/2000/svg" fill="none" viewBox="0 0 150 150"><circle cx="75" cy="75" r="73" stroke="#0082F4" stroke-width="4"/><path fill="#0082F4" d="m107.762 61.746-4.902-8.492a1.171 1.171 0 0 0-1.452-.5l-7.217 2.913a1.17 1.17 0 1 0 .876 2.17l6.274-2.532 3.885 6.73-5.323 4.162a1.17 1.17 0 0 0-.398 1.266 25.765 25.765 0 0 1 0 15.074 1.17 1.17 0 0 0 .398 1.265l5.323 4.162-3.885 6.73-6.274-2.532a1.17 1.17 0 0 0-1.295.288 25.505 25.505 0 0 1-13.045 7.539c-.474.108-.831.497-.899.978l-.942 6.692h-7.772l-.942-6.692a1.17 1.17 0 0 0-.899-.978 25.505 25.505 0 0 1-13.045-7.539 1.17 1.17 0 0 0-1.295-.288l-6.274 2.533-3.886-6.73 5.324-4.162a1.17 1.17 0 0 0 .398-1.266 25.764 25.764 0 0 1 0-15.074 1.17 1.17 0 0 0-.398-1.265l-5.324-4.162 3.886-6.73 6.274 2.532c.45.182.965.067 1.295-.288a25.505 25.505 0 0 1 13.045-7.539 1.17 1.17 0 0 0 .899-.978l.942-6.692h7.772l.942 6.692c.068.481.425.87.899.978a25.42 25.42 0 0 1 7.75 3.185 1.17 1.17 0 0 0 1.234-1.99 27.768 27.768 0 0 0-7.675-3.285l-.974-6.913A1.17 1.17 0 0 0 79.903 40h-9.806a1.17 1.17 0 0 0-1.159 1.008l-.973 6.913a27.82 27.82 0 0 0-12.891 7.45l-6.481-2.617a1.17 1.17 0 0 0-1.452.5l-4.903 8.492a1.17 1.17 0 0 0 .293 1.508l5.5 4.3a28.124 28.124 0 0 0 0 14.893l-5.5 4.3a1.17 1.17 0 0 0-.293 1.507l4.903 8.492c.291.506.91.719 1.452.5l6.481-2.616a27.82 27.82 0 0 0 12.89 7.45l.974 6.913a1.17 1.17 0 0 0 1.16 1.007h9.805a1.17 1.17 0 0 0 1.159-1.007l.974-6.914a27.81 27.81 0 0 0 12.89-7.45l6.482 2.617c.541.218 1.16.005 1.452-.5l4.902-8.492a1.17 1.17 0 0 0-.292-1.508l-5.501-4.3a28.121 28.121 0 0 0 0-14.893l5.501-4.3a1.17 1.17 0 0 0 .292-1.507Zm-34.68 7.686 5.853 9.949a1.17 1.17 0 0 1-2.018 1.187l-5.852-9.949a1.17 1.17 0 0 1 2.018-1.187Zm-4.57 10.055a1.17 1.17 0 0 1-1.655 0l-3.66-3.66a1.17 1.17 0 0 1 0-1.655l3.66-3.66a1.17 1.17 0 0 1 1.655 1.656L65.68 75l2.832 2.831a1.17 1.17 0 0 1 0 1.656ZM82.17 70.17c.3 0 .6.114.828.343l3.66 3.66a1.17 1.17 0 0 1 0 1.655l-3.66 3.66a1.17 1.17 0 0 1-1.655-1.656L84.173 75l-2.831-2.832c-.74-.74-.206-1.998.827-1.998ZM68.15 56.318a19.898 19.898 0 0 1 6.861-1.226c14.46 0 24.15 15.098 18.042 28.275-4.613 9.954-16.465 14.3-26.42 9.686-12.655-5.865-15.525-22.73-5.403-32.423a1.17 1.17 0 1 1 1.619 1.69c-8.925 8.548-6.404 23.431 4.768 28.61 8.784 4.07 19.241.236 23.312-8.547 4.07-8.783.237-19.241-8.547-23.312a17.443 17.443 0 0 0-13.426-.555 1.171 1.171 0 0 1-.806-2.198Z"/></svg>
